public/svg/wallet-icons/argent.svg

<svg fill="none" height="28" viewBox="0 0 28 28" width="28" xmlns="http://www.w3.org/2000/svg"><path d="m0 0h28v28h-28z" fill="#fff"/><path d="m15.9033 7h-4.0538c-.1355 0-.244.10935-.2469.24527-.0819 3.82053-2.07366 7.44663-5.50184 10.01503-.10884.0815-.13364.2347-.05407.345l2.3718 3.2913c.08069.112.23791.1372.34857.0549 2.14354-1.5954 3.86774-3.5201 5.10934-5.6534 1.2416 2.1333 2.9659 4.058 5.1094 5.6534.1106.0823.2678.0571.3486-.0549l2.3718-3.2913c.0795-.1103.0547-.2635-.054-.345-3.4283-2.5684-5.42-6.1945-5.5018-10.01503-.003-.13592-.1116-.24527-.2471-.24527z" fill="#ff875b"/></svg>

<svg width="28" height="28" viewBox="0 0 28 28" fill="none" xmlns="http://www.w3.org/2000/svg">
<rect width="28" height="28" fill="white"/>
<path d="M15.9033 7H11.8495C11.714 7 11.6055 7.10935 11.6026 7.24527C11.5207 11.0658 9.52894 14.6919 6.10076 17.2603C5.99192 17.3418 5.96712 17.495 6.04669 17.6053L8.41849 20.8966C8.49918 21.0086 8.6564 21.0338 8.76706 20.9515C10.9106 19.3561 12.6348 17.4314 13.8764 15.2981C15.118 17.4314 16.8423 19.3561 18.9858 20.9515C19.0964 21.0338 19.2536 21.0086 19.3344 20.8966L21.7062 17.6053C21.7857 17.495 21.7609 17.3418 21.6522 17.2603C18.2239 14.6919 16.2322 11.0658 16.1504 7.24527C16.1474 7.10935 16.0388 7 15.9033 7Z" fill="#FF875B"/>
</svg>
